X:1
T:Title
%%score { ( 1 3 4 ) | ( 2 5 6 ) }
L:1/8
M:4/4
K:Ab
V:1 treble nm="Grand Piano"
V:3 treble 
V:4 treble 
V:2 bass 
V:5 bass 
V:6 bass 
V:1
 z4 z2[Q:1/4=94] [A,C]>[B,D] | [CE]>[Ec] [Ec]>[Ec] [Ec]2 [EB]>[EA] | %2
 [DF]>[FA] [FA]>[FA] [FA]2 [EG]>[DF] | [CE]>[CA] [Ec]>[CA] [Fd]>[Ec] [=DB]>[Dc] | %4
 [EB]6 [A,C]>[B,D] | [CE]>[Ec] [Ec]>[Ec] [Ec]2 [EB]>[EA] | %6
[M:9/8] [DF]>[DF][EF]- [EF]/[EF]/ [Fd]2- [Fd][Ec]>[FB] |[M:4/4] E>c c>d [EGc]<[DEB] [CEA]>[B,EG] | %8
[M:3/4] [CEA]6 |[M:1/4] G>A |[M:4/4] B6 G2 | E>E z z/ E/ c2 c>d | e6 z2 | G2 z z/ B/- B2 z2 | %14
[M:3/4] [Ec]>[Ec] [Ec]>[Ec] [Ec]2 |[M:1/4] [EB]>[EA] | %16
[M:9/8] [DF]>[DF][EF]- [EF]/[EF]/ [Fd]2- [Fd][Ec]>[FB] |[M:4/4] E>c c>d [Gc]<B A>G | %18
[M:3/4] [CA]6 |] %19
V:2
 z4 z2 [A,,E,]>[A,,E,] | [A,,A,]>[A,,A,] [A,,A,]>[A,,A,] [A,,A,]2 [B,,G,]>[C,A,] | %2
 [D,A,]>[D,D] [D,D]>[D,D] [D,D]2 [D,A,]>[D,A,] | %3
 [A,,A,]>[A,,A,] [A,,A,]>[A,,A,] [A,,A,]>[A,,A,] [B,,F,]>[B,,A,] | [E,G,]6 [A,,E,]>[A,,E,] | %5
 [A,,A,]>[A,,A,] [A,,A,]>[A,,A,] [A,,A,]2 [B,,G,]>[C,A,] | %6
[M:9/8] [D,A,]>[D,A,][C,=A,]- [C,A,]/[D,A,]/ [B,,B,]2- [B,,B,][C,A,]>[D,B,] | %7
[M:4/4] [E,A,C]>[E,A,E] [E,A,E]>[E,B,E] E,<E, E,>E, |[M:3/4] A,,6 |[M:1/4] z2 | %10
[M:4/4] z2 [E,D]>[E,D] (3[E,-D][E,C]E, (3E,-[E,E]E, | z2[K:treble] z D z4 | %12
 z2 [A,C]>[A,C] (3[A,-C][A,_C][A,=CA] (3[A,-DA-][A,CA][K:bass]A, | z2 =D2 z4 | %14
[M:3/4] [A,,A,]>[A,,A,] [A,,A,]>[A,,A,] [A,,A,]2 |[M:1/4] [B,,G,]>[C,A,] | %16
[M:9/8] [D,A,]>[D,A,][C,=A,]- [C,A,]/[C,A,]/ [B,,B,]2- [B,,B,][C,A,]>[D,B,] | %17
[M:4/4] [E,A,C]>[E,A,E] [E,A,E]>[E,B,E] [E,E]<[E,DE] [E,CE]>[E,B,D] |[M:3/4] [A,,A,]6 |] %19
V:3
 x8 | x8 | x8 | x8 | x8 | x8 |[M:9/8] x9 |[M:4/4] x8 |[M:3/4] x6 |[M:1/4] x2 | %10
[M:4/4] z2 E>E (3E-[E=A][DEB] (3[Fd]c[DEB] | [CA]3 B z4 | z2 A>A (3A-[A=d]e (3fe[EAc] | %13
 [EB]->[EGB-] [AB]2 [EG]2 [A,EA]>[EB] |[M:3/4] x6 |[M:1/4] x2 |[M:9/8] x9 |[M:4/4] x8 | %18
[M:3/4] x6 |] %19
V:4
 x8 | x8 | x8 | x8 | x8 | x8 |[M:9/8] x9 |[M:4/4] x8 |[M:3/4] x6 |[M:1/4] x2 |[M:4/4] x8 | %11
 z2 E2 z4 | x8 | x8 |[M:3/4] x6 |[M:1/4] x2 |[M:9/8] x9 |[M:4/4] x8 |[M:3/4] x6 |] %19
V:5
 x8 | x8 | x8 | x8 | x8 | x8 |[M:9/8] x9 |[M:4/4] x8 |[M:3/4] x6 |[M:1/4] x2 |[M:4/4] x8 | %11
 A,>[K:treble]A, z z/ A,/ [A,EA]2 z2 | x22/3[K:bass] x2/3 | E,>G, F,>F, E,D, C,>[B,,G,] | %14
[M:3/4] x6 |[M:1/4] x2 |[M:9/8] x9 |[M:4/4] x8 |[M:3/4] x6 |] %19
V:6
 x8 | x8 | x8 | x8 | x8 | x8 |[M:9/8] x9 |[M:4/4] x8 |[M:3/4] x6 |[M:1/4] x2 |[M:4/4] x8 | %11
 z2[K:treble] A,2 z4 | x22/3[K:bass] x2/3 | x8 |[M:3/4] x6 |[M:1/4] x2 |[M:9/8] x9 |[M:4/4] x8 | %18
[M:3/4] x6 |] %19

